X:1
C: Woods
M: none
L:1/2
%%staves [(S A) (T B)]
K:G
V:S clef=treble
B2 | B A | G2 || G2 | G G | A B | A2 || c2 | c B | A2 || G2 | F G | A A | G2 |]
V:A clef=treble
D2 | C C | B,2 || D2 | E D | C B,/2 C/2 | D2 || C2 | D D | C2 || ^C2 | D/2 =C/2 B, | C C | B,2 |]
V:T clef=bass octave=-1
D2 | E F | G2 || G2 | G G | F G | F2 || E2 | E E | A2 || A2 | A G | G F | G2 |]
V:B clef=bass octave=-1
G,2 | G, G, | G,2 || B,2 | C B, | A, G, | D2 || A,2 | ^G, G, | A,2 || A,2 | D E | D D | G,2 |]
